X:260
T: WIEDERUM HAT STILLE NACHT
N: B0309
O: Europa, Mitteleuropa, Deutschland
R: Geselligkeits - Lied, Freude, Freundschaft, Freimaurer - Gesang
M: 2/4
L: 1/16
K: Eb
 | G3GF2F2 | E2E2A4
G3BBAcA | G4F2z2
G3GF2F2 | E2E2A4
G3BBAcA | G4F2z2
B3FF2G2 | ABcAG2F2
G3GG2=A2 | BcdcB2z2
E2E2A2A2 | G3Gc4
B2eBdcBA | G2F2E2z2

